packages/react-icons/icons/lock-open.svg

<svg xmlns="http://www.w3.org/2000/svg" width="24" height="24"><path fill-rule="evenodd" d="M18 8.5h-1v-2c0-2.76-2.24-5-5-5-2.28 0-4.27 1.54-4.84 3.75-.14.54.18 1.08.72 1.22a1 1 0 0 0 1.22-.72A2.996 2.996 0 0 1 12 3.5c1.65 0 3 1.35 3 3v2H6c-1.1 0-2 .9-2 2v10c0 1.1.9 2 2 2h12c1.1 0 2-.9 2-2v-10c0-1.1-.9-2-2-2Zm-6 5c-1.1 0-2 .9-2 2s.9 2 2 2 2-.9 2-2-.9-2-2-2Zm5 7c.55 0 1-.45 1-1v-8c0-.55-.45-1-1-1H7c-.55 0-1 .45-1 1v8c0 .55.45 1 1 1h10Z" clip-rule="evenodd"/></svg>

<svg width="24" height="24" viewBox="0 0 24 24" xmlns="http://www.w3.org/2000/svg">
<path fill-rule="evenodd" clip-rule="evenodd" d="M18 8.5H17V6.5C17 3.74 14.76 1.5 12 1.5C9.72 1.5 7.73 3.04 7.16 5.25C7.02 5.79 7.34 6.33 7.88 6.47C8.41 6.61 8.96 6.29 9.1 5.75C9.44 4.43 10.63 3.5 12 3.5C13.65 3.5 15 4.85 15 6.5V8.5H6C4.9 8.5 4 9.4 4 10.5V20.5C4 21.6 4.9 22.5 6 22.5H18C19.1 22.5 20 21.6 20 20.5V10.5C20 9.4 19.1 8.5 18 8.5ZM12 13.5C10.9 13.5 10 14.4 10 15.5C10 16.6 10.9 17.5 12 17.5C13.1 17.5 14 16.6 14 15.5C14 14.4 13.1 13.5 12 13.5ZM17 20.5C17.55 20.5 18 20.05 18 19.5V11.5C18 10.95 17.55 10.5 17 10.5H7C6.45 10.5 6 10.95 6 11.5V19.5C6 20.05 6.45 20.5 7 20.5H17Z" />
</svg>
